nextApp/public/backgrounds/cases-1.svg

<svg xmlns="http://www.w3.org/2000/svg" width="736" height="340" fill="none" viewBox="0 0 736 340"><mask id="a" width="736" height="340" x="0" y="0" maskUnits="userSpaceOnUse" style="mask-type:alpha"><path fill="#004fed" d="M0 0h736v340H0z"/><path fill="#004fed" d="M0 0h736v340H0z"/><path fill="#004fed" d="M0 0h736v340H0z"/></mask><g mask="url(#a)"><path fill="#0d3fa0" d="M0 0h736v340H0z"/><g filter="url(#b)"><path fill="#000" d="M1 0h153v174c0 35.346-28.654 64-64 64H36c-19.33 0-35-15.67-35-35z"/></g><g filter="url(#c)"><path fill="#000" d="M1 113V-40h325c15.464 0 28 12.536 28 28v80c0 24.853-20.147 45-45 45z"/></g><g filter="url(#d)"><path fill="#000" d="M818.791 295.756 661.278 453.269 441.153 233.144c-10.935-10.934-10.935-28.663 0-39.598L547.047 87.652c17.574-17.574 46.066-17.574 63.64 0z"/></g></g><defs><filter id="b" width="393" height="478" x="-119" y="-120" color-interpolation-filters="sRGB" filterUnits="userSpaceOnUse"><feFlood flood-opacity="0" result="BackgroundImageFix"/><feBlend in="SourceGraphic" in2="BackgroundImageFix" result="shape"/><feGaussianBlur result="effect1_foregroundBlur_312_202" stdDeviation="60"/></filter><filter id="c" width="593" height="393" x="-119" y="-160" color-interpolation-filters="sRGB" filterUnits="userSpaceOnUse"><feFlood flood-opacity="0" result="BackgroundImageFix"/><feBlend in="SourceGraphic" in2="BackgroundImageFix" result="shape"/><feGaussianBlur result="effect1_foregroundBlur_312_202" stdDeviation="60"/></filter><filter id="d" width="625.84" height="618.798" x="312.951" y="-45.529" color-interpolation-filters="sRGB" filterUnits="userSpaceOnUse"><feFlood flood-opacity="0" result="BackgroundImageFix"/><feBlend in="SourceGraphic" in2="BackgroundImageFix" result="shape"/><feGaussianBlur result="effect1_foregroundBlur_312_202" stdDeviation="60"/></filter></defs></svg>

<svg width="736" height="340" viewBox="0 0 736 340" fill="none" xmlns="http://www.w3.org/2000/svg">
<mask id="mask0_312_202" style="mask-type:alpha" maskUnits="userSpaceOnUse" x="0" y="0" width="736" height="340">
<rect width="736" height="340" fill="#004FED"/>
<rect width="736" height="340" fill="#004FED"/>
<rect width="736" height="340" fill="#004FED"/>
</mask>
<g mask="url(#mask0_312_202)">
<rect width="736" height="340" fill="#0D3FA0"/>
<g filter="url(#filter0_f_312_202)">
<path d="M1 0H154V174C154 209.346 125.346 238 90 238H36C16.67 238 1 222.33 1 203V0Z" fill="black"/>
</g>
<g filter="url(#filter1_f_312_202)">
<path d="M1 113L0.999993 -40L326 -40C341.464 -40 354 -27.464 354 -12L354 68C354 92.8528 333.853 113 309 113L1 113Z" fill="black"/>
</g>
<g filter="url(#filter2_f_312_202)">
<path d="M818.791 295.756L661.278 453.269L441.153 233.144C430.218 222.21 430.218 204.481 441.153 193.546L547.047 87.6516C564.621 70.078 593.113 70.078 610.687 87.6516L818.791 295.756Z" fill="black"/>
</g>
</g>
<defs>
<filter id="filter0_f_312_202" x="-119" y="-120" width="393" height="478" filterUnits="userSpaceOnUse" color-interpolation-filters="sRGB">
<feFlood flood-opacity="0" result="BackgroundImageFix"/>
<feBlend mode="normal" in="SourceGraphic" in2="BackgroundImageFix" result="shape"/>
<feGaussianBlur stdDeviation="60" result="effect1_foregroundBlur_312_202"/>
</filter>
<filter id="filter1_f_312_202" x="-119" y="-160" width="593" height="393" filterUnits="userSpaceOnUse" color-interpolation-filters="sRGB">
<feFlood flood-opacity="0" result="BackgroundImageFix"/>
<feBlend mode="normal" in="SourceGraphic" in2="BackgroundImageFix" result="shape"/>
<feGaussianBlur stdDeviation="60" result="effect1_foregroundBlur_312_202"/>
</filter>
<filter id="filter2_f_312_202" x="312.951" y="-45.5288" width="625.84" height="618.798" filterUnits="userSpaceOnUse" color-interpolation-filters="sRGB">
<feFlood flood-opacity="0" result="BackgroundImageFix"/>
<feBlend mode="normal" in="SourceGraphic" in2="BackgroundImageFix" result="shape"/>
<feGaussianBlur stdDeviation="60" result="effect1_foregroundBlur_312_202"/>
</filter>
</defs>
</svg>
